Papirus/32x32/apps/distributor-logo-bunsenlabs.svg

<svg width="32" height="32" version="1.1" xmlns="http://www.w3.org/2000/svg">
 <circle cx="16" cy="17" r="14" style="opacity:.2"/>
 <circle cx="16" cy="16" r="14" style="fill:#282722"/>
 <path d="M 16,2 A 14,14 0 0 0 2,16 14,14 0 0 0 2.0215,16.586 14,14 0 0 1 16,3 14,14 0 0 1 29.979,16.414 14,14 0 0 0 30,16 14,14 0 0 0 16,2 Z" style="fill:#ffffff;opacity:.1"/>
 <path d="m17 6c-4 3-6.737426 6.837359-7 11-0.06722 1.750382 0.84363 3.962194 1.970703 6.015625l0.029297-0.015625s-0.106788-1.341942 0-2c0.337694-2.080963 3-5 3-5s1.797239 3.469519 2 6c0.15347 1.915324-0.387615 4.984435-0.732422 6.705078 0.716529-0.750118 4.732422-5.13367 4.732422-9.705078 0-5-4-9-4-9z" style="opacity:.2"/>
 <path d="m17 5c-4 3-6.737426 6.837359-7 11-0.06722 1.750382 0.84363 3.962194 1.970703 6.015625l0.029297-0.015625s-0.106788-1.341942 0-2c0.337694-2.080963 3-5 3-5s1.797239 3.469519 2 6c0.15347 1.915324-0.387615 4.984435-0.732422 6.705078 0.716529-0.750118 4.732422-5.13367 4.732422-9.705078 0-5-4-9-4-9z" style="fill:#fbb620"/>
</svg>

<svg xmlns="http://www.w3.org/2000/svg" width="32" height="32" version="1.1">
 <circle style="opacity:0.2" cx="16" cy="17" r="14"/>
 <circle style="fill:#4f4f4f" cx="16" cy="16" r="14"/>
 <path style="opacity:0.2" d="M 17,6 C 13,9 10,13 10,17 10,19 10.873,20.946 12,23 12,23 11.895,21.656 12,21 12.338,18.919 15,16 15,16 15,16 16.797,19.47 17,22 17.153,23.915 16.345,27.279 16,29 16.717,28.25 21,23.571 21,19 21,14 17,10 17,10 Z"/>
 <path style="fill:#fbb620" d="M 17,5 C 13,8 10,12 10,16 10,18 10.873,19.946 12,22 12,22 11.895,20.656 12,20 12.338,17.919 15,15 15,15 15,15 16.797,18.47 17,21 17.153,22.915 16.345,26.279 16,28 16.717,27.25 21,22.571 21,18 21,13 17,9 17,9 Z"/>
 <path style="fill:#ffffff;opacity:0.1" d="M 16 2 A 14 14 0 0 0 2 16 A 14 14 0 0 0 2.0215 16.586 A 14 14 0 0 1 16 3 A 14 14 0 0 1 29.979 16.414 A 14 14 0 0 0 30 16 A 14 14 0 0 0 16 2 z"/>
</svg>
